src/assets/images/header/icon-theme-selected.svg

<svg viewBox="0 0 20 20" fill="none" xmlns="http://www.w3.org/2000/svg">
<path d="M4.59067 4.56188C4.94709 4.20635 4.94731 3.62905 4.59115 3.27325L4.24473 2.92718C3.88884 2.57165 3.31196 2.57246 2.95706 2.92898C2.60375 3.2839 2.60375 3.85765 2.95706 4.21258L3.30252 4.55961C3.6575 4.91621 4.23443 4.91722 4.59067 4.56188ZM2.72727 10C2.72727 9.49563 2.3184 9.08676 1.81403 9.08676H0.913242C0.408873 9.08676 0 9.49563 0 10C0 10.5044 0.408873 10.9132 0.913242 10.9132H1.81403C2.3184 10.9132 2.72727 10.5044 2.72727 10ZM10.9091 0.909091C10.9091 0.407014 10.5021 0 10 0C9.49792 0 9.09091 0.407014 9.09091 0.909091V1.78497C9.09091 2.28705 9.49792 2.69406 10 2.69406C10.5021 2.69406 10.9091 2.28705 10.9091 1.78497V0.909091ZM17.0438 4.21168C17.3967 3.85725 17.3967 3.28431 17.0438 2.92987C16.6887 2.57315 16.1113 2.57315 15.7562 2.92987L15.4107 3.27691C15.0579 3.63134 15.0579 4.20428 15.4107 4.55871C15.7658 4.91543 16.3433 4.91543 16.6984 4.55871L17.0438 4.21168ZM15.3971 15.4458C15.0465 15.798 15.0457 16.3671 15.3953 16.7203L15.7489 17.0775C16.1027 17.4349 16.6799 17.4357 17.0347 17.0793C17.3873 16.7251 17.3865 16.1524 17.033 15.7992L16.6774 15.444C16.3236 15.0906 15.75 15.0914 15.3971 15.4458ZM18.186 9.08676C17.6816 9.08676 17.2727 9.49563 17.2727 10C17.2727 10.5044 17.6816 10.9132 18.186 10.9132H19.0868C19.5911 10.9132 20 10.5044 20 10C20 9.49563 19.5911 9.08676 19.0868 9.08676H18.186ZM10 4.52055C6.99091 4.52055 4.54545 6.97717 4.54545 10C4.54545 13.0228 6.99091 15.4795 10 15.4795C13.0091 15.4795 15.4545 13.0228 15.4545 10C15.4545 6.97717 13.0091 4.52055 10 4.52055ZM9.09091 19.0909C9.09091 19.593 9.49792 20 10 20C10.5021 20 10.9091 19.593 10.9091 19.0909V18.215C10.9091 17.7129 10.5021 17.3059 10 17.3059C9.49792 17.3059 9.09091 17.7129 9.09091 18.215V19.0909ZM2.9526 15.7883C2.60147 16.1431 2.60227 16.7146 2.95439 17.0683C3.31018 17.4258 3.88901 17.4249 4.24381 17.0665L4.59285 16.7139C4.94398 16.3592 4.94319 15.7877 4.59107 15.4339C4.23528 15.0765 3.65645 15.0773 3.30165 15.4357L2.9526 15.7883Z" fill="white"/>
</svg>

<svg xmlns="http://www.w3.org/2000/svg" fill="none" viewBox="0 0 20 20"><path fill="#fff" d="M4.59 4.562a.91.91 0 0 0 .001-1.289l-.346-.346a.91.91 0 0 0-1.288 1.286l.346.347a.91.91 0 0 0 1.288.002M2.728 10a.913.913 0 0 0-.913-.913h-.9a.913.913 0 1 0 0 1.826h.9A.913.913 0 0 0 2.727 10M10.91.91a.91.91 0 1 0-1.818 0v.875a.91.91 0 1 0 1.818 0zm6.135 3.302a.908.908 0 1 0-1.288-1.282l-.345.347a.908.908 0 0 0 1.287 1.282zm-1.647 11.234a.905.905 0 0 0-.002 1.274l.354.358a.906.906 0 1 0 1.284-1.279l-.356-.355a.905.905 0 0 0-1.28.002m2.789-6.36a.913.913 0 1 0 0 1.827h.9a.913.913 0 1 0 0-1.826zM10 4.522C6.99 4.52 4.545 6.977 4.545 10S6.991 15.48 10 15.48s5.454-2.457 5.454-5.48S13.01 4.52 10 4.52m-.91 14.57a.91.91 0 1 0 1.82 0v-.876a.91.91 0 1 0-1.82 0zm-6.137-3.303a.908.908 0 0 0 1.29 1.279l.35-.353a.908.908 0 0 0-1.291-1.278z"/></svg>
